rospo-icon-theme-classic-common/64x64/apps/rdm.svg

<svg height="64" viewBox="0 0 64 64" width="64" xmlns="http://www.w3.org/2000/svg"><path d="m32.001291 27.000008c-1.857226-.000342-3.714544.418448-5.088925 1.252892l-20.8520582 12.658031c-2.7487673 1.668886-2.7462151 4.510489.00252 6.179377l20.8494982 12.658032c2.748765 1.668881 7.42909 1.668879 10.177852 0l20.849545-12.658032c2.748762-1.668882 2.746174-4.510495-.0026-6.179377l-20.846909-12.658031c-1.374382-.834444-3.231698-1.252552-5.088923-1.252892z" opacity=".2"/><path d="m32.001291 26c-1.857226-.000342-3.714544.418448-5.088925 1.252892l-20.8520582 12.658032c-2.7487673 1.668885-2.7462151 4.510489.00252 6.179376l20.8494982 12.658032c2.748765 1.668882 7.42909 1.66888 10.177852 0l20.849545-12.658032c2.748762-1.668881 2.746174-4.510495-.0026-6.179376l-20.846909-12.658032c-1.374382-.834444-3.231698-1.252552-5.088923-1.252892z" fill="#af2d2c"/><path d="m32.001289 16.000007c-1.857226-.000341-3.714544.418449-5.088925 1.252893l-20.8520596 12.658034c-2.7487673 1.668884-2.7462151 4.510485.00252 6.179373l20.8494996 12.658032c2.748765 1.668881 7.429088 1.668881 10.17785 0l20.849547-12.658032c2.74876-1.66888 2.746174-4.510495-.0026-6.179373l-20.846909-12.658034c-1.374382-.834444-3.231698-1.252551-5.088923-1.252893z" opacity=".2"/><path d="m32.001289 15c-1.857226-.000341-3.714544.41845-5.088925 1.252893l-20.8520596 12.658034c-2.7487673 1.668883-2.7462151 4.510485.00252 6.179372l20.8494996 12.658032c2.748765 1.668882 7.429088 1.668882 10.17785 0l20.849547-12.658032c2.74876-1.668879 2.746174-4.510495-.0026-6.179372l-20.846909-12.658034c-1.374382-.834443-3.231698-1.252551-5.088923-1.252893z" fill="#da3837"/><path d="m32.001291 5.0000066c-1.857226-.0003414-3.714544.4184493-5.088925 1.2528927l-20.8520582 12.6580317c-2.7487673 1.668884-2.7462151 4.510489.00252 6.179377l20.8494982 12.65803c2.748765 1.668883 7.42909 1.668881 10.177852 0l20.849545-12.65803c2.748762-1.668882 2.746174-4.510497-.0026-6.179377l-20.846909-12.6580317c-1.374382-.8344434-3.231698-1.2525514-5.088923-1.2528927z" opacity=".2"/><path d="m32.001291 3.9999998c-1.857226-.0003414-3.714544.4184493-5.088925 1.2528927l-20.8520582 12.6580325c-2.7487673 1.668884-2.7462151 4.510488.00252 6.179375l20.8494982 12.65803c2.748765 1.668884 7.42909 1.668882 10.177852 0l20.849545-12.65803c2.748762-1.668881 2.746174-4.510497-.0026-6.179375l-20.846909-12.6580325c-1.374382-.8344434-3.231698-1.2525514-5.088923-1.2528927z" fill="#e0504d"/><path d="m911.2 296.75-123.63 12.83-27.68 66.59-44.7-74.31-142.75-12.83 106.52-38.41-31.96-58.96 99.72 39 94.02-30.78-25.41 60.97z" opacity=".2" transform="matrix(.04132815 0 0 .05419789 2.341989 -1.387509)"/><path d="m840.74 199.88-25.41 60.97 95.87 35.9-123.63 12.83-27.68 66.59-44.7-74.31-142.75-12.83 106.52-38.41-31.96-58.96 99.72 39z" fill="#fff" transform="matrix(.04132815 0 0 .05419789 2.341989 -2.387515)"/><path d="m852.4 473.38-99.89 146.43-230.72-95.7z" opacity=".2" transform="matrix(.03629631 0 0 .05463249 5.061092 1.138346)"/><path d="m752.51 619.81-230.72-95.7 330.61-50.73z" fill="#fff" transform="matrix(.03629631 0 0 .05463249 5.061092 .138339)"/><ellipse cx="19" cy="21" opacity=".2" rx="7" ry="4"/><ellipse cx="19" cy="20" fill="#fff" rx="7" ry="4"/><path d="m1046.891 477.818-206.066-77.243 206.066-85.628z" opacity=".25" transform="matrix(.03882251 0 0 .06139827 3.357064 -3.337206)"/><path d="m1252.957 392.274-206.066 85.544v-162.871z" opacity=".4" transform="matrix(.03882251 0 0 .06139827 3.357064 -3.337206)"/><path d="m32.001953 4c-1.857226-.0003414-3.715463.4175097-5.089844 1.2519531l-20.8515621 12.6582029c-1.57674.957301-2.2426259 2.301535-2.0097657 3.587891.173745-.954064.8401693-1.877783 2.0097657-2.587891l20.8515621-12.6582029c1.374381-.8344434 3.232618-1.2522945 5.089844-1.2519531 1.857225.0003413 3.713509.4175097 5.087891 1.2519531l20.847656 12.6582029c1.17203.711581 1.838615 1.637571 2.011719 2.59375.234572-1.288164-.432544-2.634977-2.011719-3.59375l-20.847656-12.6582029c-1.374382-.8344434-3.230666-1.2516118-5.087891-1.2519531z" fill="#fff" opacity=".2"/></svg>

<svg xmlns="http://www.w3.org/2000/svg" width="64" height="64" version="1.1" viewBox="0 0 64 64">
 <path style="opacity:0.2" d="m 32.001291,27.000008 c -1.857226,-3.42e-4 -3.714544,0.418448 -5.088925,1.252892 L 6.0603078,40.910931 c -2.7487673,1.668886 -2.7462151,4.510489 0.00252,6.179377 L 26.912326,59.74834 c 2.748765,1.668881 7.42909,1.668879 10.177852,0 L 57.939723,47.090308 c 2.748762,-1.668882 2.746174,-4.510495 -0.0026,-6.179377 L 37.090214,28.2529 c -1.374382,-0.834444 -3.231698,-1.252552 -5.088923,-1.252892 z"/>
 <path style="fill:#af2d2c" d="m 32.001291,26 c -1.857226,-3.42e-4 -3.714544,0.418448 -5.088925,1.252892 L 6.0603078,39.910924 c -2.7487673,1.668885 -2.7462151,4.510489 0.00252,6.179376 L 26.912326,58.748332 c 2.748765,1.668882 7.42909,1.66888 10.177852,0 L 57.939723,46.0903 c 2.748762,-1.668881 2.746174,-4.510495 -0.0026,-6.179376 L 37.090214,27.252892 C 35.715832,26.418448 33.858516,26.00034 32.001291,26 Z"/>
 <path style="opacity:0.2" d="m 32.001289,16.000007 c -1.857226,-3.41e-4 -3.714544,0.418449 -5.088925,1.252893 L 6.0603044,29.910934 c -2.7487673,1.668884 -2.7462151,4.510485 0.00252,6.179373 L 26.912324,48.748339 c 2.748765,1.668881 7.429088,1.668881 10.17785,0 L 57.939721,36.090307 c 2.74876,-1.66888 2.746174,-4.510495 -0.0026,-6.179373 L 37.090212,17.2529 C 35.71583,16.418456 33.858514,16.000349 32.001289,16.000007 Z"/>
 <path style="fill:#da3837" d="m 32.001289,15 c -1.857226,-3.41e-4 -3.714544,0.41845 -5.088925,1.252893 L 6.0603044,28.910927 c -2.7487673,1.668883 -2.7462151,4.510485 0.00252,6.179372 L 26.912324,47.748331 c 2.748765,1.668882 7.429088,1.668882 10.17785,0 L 57.939721,35.090299 c 2.74876,-1.668879 2.746174,-4.510495 -0.0026,-6.179372 L 37.090212,16.252893 C 35.71583,15.41845 33.858514,15.000342 32.001289,15 Z"/>
 <path style="opacity:0.2" d="M 32.001291,5.0000066 C 30.144065,4.9996652 28.286747,5.4184559 26.912366,6.2528993 L 6.0603078,18.910931 c -2.7487673,1.668884 -2.7462151,4.510489 0.00252,6.179377 l 20.8494982,12.65803 c 2.748765,1.668883 7.42909,1.668881 10.177852,0 l 20.849545,-12.65803 c 2.748762,-1.668882 2.746174,-4.510497 -0.0026,-6.179377 L 37.090214,6.2528993 C 35.715832,5.4184559 33.858516,5.0003479 32.001291,5.0000066 Z"/>
 <path style="fill:#e0504d" d="M 32.001291,3.9999998 C 30.144065,3.9996584 28.286747,4.4184491 26.912366,5.2528925 L 6.0603078,17.910925 c -2.7487673,1.668884 -2.7462151,4.510488 0.00252,6.179375 L 26.912326,36.74833 c 2.748765,1.668884 7.42909,1.668882 10.177852,0 L 57.939723,24.0903 c 2.748762,-1.668881 2.746174,-4.510497 -0.0026,-6.179375 L 37.090214,5.2528925 C 35.715832,4.4184491 33.858516,4.0003411 32.001291,3.9999998 Z"/>
 <polygon style="opacity:0.2" points="911.2 296.75 787.57 309.58 759.89 376.17 715.19 301.86 572.44 289.03 678.96 250.62 647 191.66 746.72 230.66 840.74 199.88 815.33 260.85" transform="matrix(0.04132815,0,0,0.05419789,2.3419887,-1.3875089)"/>
 <polygon style="fill:#ffffff" points="840.74 199.88 815.33 260.85 911.2 296.75 787.57 309.58 759.89 376.17 715.19 301.86 572.44 289.03 678.96 250.62 647 191.66 746.72 230.66" transform="matrix(0.04132815,0,0,0.05419789,2.3419887,-2.3875153)"/>
 <polygon style="opacity:0.2" points="852.4 473.38 752.51 619.81 521.79 524.11" transform="matrix(0.03629631,0,0,0.05463249,5.0610924,1.1383456)"/>
 <polygon style="fill:#ffffff" points="752.51 619.81 521.79 524.11 852.4 473.38" transform="matrix(0.03629631,0,0,0.05463249,5.0610924,0.13833915)"/>
 <ellipse style="opacity:0.2" cx="19" cy="21" rx="7" ry="4"/>
 <ellipse style="fill:#ffffff" cx="19" cy="20" rx="7" ry="4"/>
 <g transform="matrix(1.3823931,0,0,1.4604227,-0.53094384,-1.7926316)">
  <path style="opacity:0.25" d="M 1046.891,477.818 840.825,400.575 1046.891,314.947 Z" transform="matrix(0.02808355,0,0,0.04204144,2.8125203,-1.0576208)"/>
  <path style="opacity:0.4" d="m 1252.957,392.274 -206.066,85.544 0,-162.871 z" transform="matrix(0.02808355,0,0,0.04204144,2.8125203,-1.0576208)"/>
 </g>
 <path style="opacity:0.2;fill:#ffffff" d="M 32.001953 4 C 30.144727 3.9996586 28.28649 4.4175097 26.912109 5.2519531 L 6.0605469 17.910156 C 4.4838069 18.867457 3.817921 20.211691 4.0507812 21.498047 C 4.2245262 20.543983 4.8909505 19.620264 6.0605469 18.910156 L 26.912109 6.2519531 C 28.28649 5.4175097 30.144727 4.9996586 32.001953 5 C 33.859178 5.0003413 35.715462 5.4175097 37.089844 6.2519531 L 57.9375 18.910156 C 59.10953 19.621737 59.776115 20.547727 59.949219 21.503906 C 60.183791 20.215742 59.516675 18.868929 57.9375 17.910156 L 37.089844 5.2519531 C 35.715462 4.4175097 33.859178 4.0003413 32.001953 4 z"/>
</svg>
